packages/kaspersky-hexa-ui-icons/src/iconsSVGs/28x20/FlagNa.svg

<svg width="28" height="20" viewBox="0 0 28 20" fill="none" xmlns="http://www.w3.org/2000/svg">
<g clip-path="url(#clip0_5138_1531)">
<rect width="28" height="20" rx="2" fill="white"/>
<mask id="mask0_5138_1531" style="mask-type:luminance" maskUnits="userSpaceOnUse" x="0" y="0" width="28" height="20">
<rect width="28" height="20" rx="2" fill="white"/>
</mask>
<g mask="url(#mask0_5138_1531)">
<path fill-rule="evenodd" clip-rule="evenodd" d="M0 13.3333L28 0H0V13.3333Z" fill="#0C4799"/>
<path fill-rule="evenodd" clip-rule="evenodd" d="M4.66667 6L3.64618 7.13035L3.72386 5.60948L2.20299 5.68716L3.33333 4.66667L2.20299 3.64618L3.72386 3.72386L3.64618 2.20299L4.66667 3.33333L5.68716 2.20299L5.60948 3.72386L7.13035 3.64618L6 4.66667L7.13035 5.68716L5.60948 5.60948L5.68716 7.13035L4.66667 6Z" fill="#FFD243"/>
<path fill-rule="evenodd" clip-rule="evenodd" d="M0 20H28V6.66667L0 20Z" fill="#1BAC55"/>
<path fill-rule="evenodd" clip-rule="evenodd" d="M3.08239 22.6667L30.1707 5.74003L24.9176 -2.6667L-2.17072 14.26L3.08239 22.6667Z" fill="white"/>
<path fill-rule="evenodd" clip-rule="evenodd" d="M-0.629192 23.0719L32.162 2.58172L28.6292 -3.07193L-4.16199 17.4183L-0.629192 23.0719Z" fill="#E52347"/>
</g>
</g>
<defs>
<clipPath id="clip0_5138_1531">
<rect width="28" height="20" fill="white"/>
</clipPath>
</defs>
</svg>

<svg xmlns="http://www.w3.org/2000/svg" width="28" height="20" fill="none" viewBox="0 0 28 20"><g clip-path="url(#a)"><rect width="28" height="20" fill="#fff" rx="2"/><mask id="b" width="28" height="20" x="0" y="0" maskUnits="userSpaceOnUse" style="mask-type:luminance"><rect width="28" height="20" fill="#fff" rx="2"/></mask><g fill-rule="evenodd" clip-rule="evenodd" mask="url(#b)"><path fill="#0c4799" d="M0 13.3333 28 0H0z"/><path fill="#ffd243" d="M4.6667 6 3.6462 7.1304l.0777-1.521-1.521.0778 1.1304-1.0205L2.203 3.6462l1.5209.0777-.0777-1.521 1.0205 1.1304L5.6872 2.203l-.0777 1.5209 1.5209-.0777L6 4.6667l1.1304 1.0205-1.521-.0777.0778 1.5209z"/><path fill="#1bac55" d="M0 20h28V6.6667z"/><path fill="#fff" d="M3.0824 22.6667 30.1707 5.74l-5.2531-8.4067L-2.1707 14.26z"/><path fill="#e52347" d="M-.6292 23.0719 32.162 2.5817l-3.5328-5.6536L-4.162 17.4183z"/></g></g><defs><clipPath id="a"><path fill="#fff" d="M0 0h28v20H0z"/></clipPath></defs></svg>
